images/icons/formations.svg

<svg xmlns="http://www.w3.org/2000/svg" viewBox="0 0 30 30">
    <path fill="white" d="M 15 3 A 1 1 0 0 0 14.527344 3.1191406 L 0.53710938 10.113281 L 0.53710938 10.115234 A 1 1 0 0 0 0 11 A 1 1 0 0 0 0.53710938 11.884766 L 0.53710938 11.886719 L 14.521484 18.876953 A 1 1 0 0 0 15 19 A 1 1 0 0 0 15.472656 18.880859 L 29.453125 11.890625 A 1 1 0 0 0 29.462891 11.886719 L 29.462891 11.884766 A 1 1 0 0 0 30 11 A 1 1 0 0 0 29.462891 10.115234 L 29.462891 10.113281 L 15.478516 3.1230469 A 1 1 0 0 0 15 3 z M 29 14.353516 L 27 15.353516 L 27 24.277344 C 26.404366 24.623613 26 25.261054 26 26 C 26 27.105 28 30 28 30 C 28 30 30 27.105 30 26 C 30 25.261054 29.595634 24.623613 29 24.277344 L 29 14.353516 z M 6 16.851562 L 6 21 C 6 23.761 10.029 26 15 26 C 19.971 26 24 23.761 24 21 L 24 16.851562 L 16.365234 20.669922 C 16.281234 20.711922 16.197328 20.746391 16.111328 20.775391 C 15.749328 20.924391 15.377 21 15 21 C 14.624 21 14.252578 20.924391 13.892578 20.775391 C 13.805578 20.746391 13.719766 20.710969 13.634766 20.667969 L 6 16.851562 z"></path>
</svg>

<svg xmlns="http://www.w3.org/2000/svg" viewBox="0 0 30 30"><path fill="#fff" d="M15 3a1 1 0 0 0-.473.119l-13.99 6.994v.002a1 1 0 0 0-.537.885 1 1 0 0 0 .537.885v.002l13.984 6.99a1 1 0 0 0 .479.123 1 1 0 0 0 .473-.119l13.98-6.99a1 1 0 0 0 .01-.004v-.002a1 1 0 0 0 .537-.885 1 1 0 0 0-.537-.885v-.002l-13.984-6.99a1 1 0 0 0-.479-.123zm14 11.354l-2 1v8.924c-.596.346-1 .984-1 1.723 0 1.105 2 4 2 4s2-2.895 2-4c0-.739-.404-1.376-1-1.723v-9.924zm-23 2.498v4.148c0 2.761 4.029 5 9 5s9-2.239 9-5v-4.148l-7.635 3.818-.254.105c-.362.149-.734.225-1.111.225-.376 0-.747-.076-1.107-.225l-.258-.107-7.635-3.816z"/></svg>
